X:1
T: J.F. Dickie's Delight
C:J.M. Henderson
R:Strathspey
Q: 128
K:A
M:4/4
L:1/16
|:C3B, A,3C D3F A4|G2BG E3G A3c e4|d3f a3g ((3f2e2d2) ((3c2d2e2) |fF3 B3A ((3G2F2E2) ((3D2C2B,2) |
A,C2B, A,3C D3F A4|G2BG E3G A3c e4|d3f a3f e3a1/2g1/2 ((3f2e2d2)|eE3 c3B A4-A3E|
A3c e3a G3B e3g|F3A d3f E3A ce3|C3E A3c ((3f2e2d2) ((3c2B2A2) |BF3 B3A GB2G ((3E2F2G2) |
A3c ea2A G3B eg2G|F3A df2F E3A ce2A|d3c d3f ea2g ((3f2e2d2) |eE3 c3B A4-A4:|
